X:1
T:Title
%%score [ 1 2 3 ]
L:1/8
Q:1/4=96
M:4/4
K:C
V:1 treble-8 nm="Tenor 1"
V:2 treble-8 nm="Tenor 2"
V:3 bass nm="Bass"
V:1
 e2 ee e2 d2 | e2 e2 d2 B2 | c4 B2 e2 | d2 c2 B4 | A4 :: x4 z2 A2 | A2 A2 c4 | B2 e2 ddcc | %8
w: Che gio- va far mo-|rir un che t'a-|do- ra un|che t'a- do-|ra|C'ha|tut- te l'ho-|re c'ha tut- te l'ho- re|
 B2 A d2 d c2 | B2 z A AAAA | B2 z d ddcc | B2 e2 d2 c2 | B4 A4 :| %13
w: chi- ma\_il tuo bel no-|me E tu lo fai mo-|rir e tu lo fai mo-|rir e non so|co- me.|
V:2
 c2 cc c2 B2 | c2 c2 B2 ^G2 | A4 ^G2 c2 | B2 A2 A2 ^G2 | A4 :: x4 z2 ^F2 | ^F2 F2 A4 | %7
w: Che gio- va far mo-|rir un che t'a-|do- ra un|che t'a- do- *|ra|C'ha|tut- te l'ho-|
 ^G2 c2 BBAA | ^G2 ^F B2 B A2 | ^G2 z ^F FFFF | G2 z B BBAA | ^G2 c2 B2 A2 | (A^G/^F/AG) A4 :| %13
w: re c'ha tut- te l'ho- re|chi- ma\_il tuo bel no-|me E tu lo fai mo-|rir e tu lo fai mo-|rir e non so|co- * * * * me.|
V:3
 C,2 C,C, C,2 G,2 | C,2 C,2 G,2 E,2 | (A,,B,,C,D,) E,2 C,2 | G,,2 A,,2 E,4 | A,,4 :: x4 z2 D,2 | %6
w: Che gio- va far mo-|rir un che t'a-|do- * * * ra un|che t'a- do-|ra|C'ha|
 D,2 D,2 (A,,B,,C,D,) | E,2 C,2 G,G,A,A,, | E,2 D, G,,2 G,, A,,2 | E,2 z D, D,D,D,D, | %10
w: tut- te l'ho- * * *|re c'ha tut- te l'ho- re|chi- ma\_il tuo bel no-|me E tu lo fai mo-|
 G,,2 z G, G,G,,A,,A,, | E,2 C,2 G,,2 A,,2 | E,4 A,,4 :| %13
w: rir e tu lo fai mo-|rir e non so|co- me.|

